assets/icons/18px/outline/widgets-18px.svg

<svg fill="none" height="18" width="18" xmlns="http://www.w3.org/2000/svg" xmlns:xlink="http://www.w3.org/1999/xlink"><clipPath id="a"><path d="m0 0h18v18h-18z"/></clipPath><g clip-path="url(#a)"><path d="m2.5 12c0-.943 0-1.414.293-1.707s.764-.293 1.707-.293h1.5c.943 0 1.414 0 1.707.293s.293.764.293 1.707v1.5c0 .943 0 1.414-.293 1.707s-.764.293-1.707.293h-1.5c-.943 0-1.414 0-1.707-.293s-.293-.764-.293-1.707zm0-7.5c0-.943 0-1.414.293-1.707s.764-.293 1.707-.293h9c.943 0 1.414 0 1.707.293s.293.764.293 1.707v1c0 .943 0 1.414-.293 1.707s-.764.293-1.707.293h-9c-.943 0-1.414 0-1.707-.293s-.293-.764-.293-1.707zm7.5 7.5c0-.943 0-1.414.293-1.707s.764-.293 1.707-.293h1.5c.943 0 1.414 0 1.707.293s.293.764.293 1.707v1.5c0 .943 0 1.414-.293 1.707s-.764.293-1.707.293h-1.5c-.943 0-1.414 0-1.707-.293s-.293-.764-.293-1.707z" stroke="#fff" stroke-linecap="round" stroke-linejoin="round"/></g></svg>

<svg width="18" height="18" fill="none" xmlns="http://www.w3.org/2000/svg"><g clip-path="url(#clip0_821_19417)"><path d="M2.5 12c0-.943 0-1.414.293-1.707C3.086 10 3.557 10 4.5 10H6c.943 0 1.414 0 1.707.293C8 10.586 8 11.057 8 12v1.5c0 .943 0 1.414-.293 1.707-.293.293-.764.293-1.707.293H4.5c-.943 0-1.414 0-1.707-.293-.293-.293-.293-.764-.293-1.707V12zm0-7.5c0-.943 0-1.414.293-1.707C3.086 2.5 3.557 2.5 4.5 2.5h9c.943 0 1.414 0 1.707.293.293.293.293.764.293 1.707v1c0 .943 0 1.414-.293 1.707-.293.293-.764.293-1.707.293h-9c-.943 0-1.414 0-1.707-.293C2.5 6.914 2.5 6.443 2.5 5.5v-1zM10 12c0-.943 0-1.414.293-1.707C10.586 10 11.057 10 12 10h1.5c.943 0 1.414 0 1.707.293.293.293.293.764.293 1.707v1.5c0 .943 0 1.414-.293 1.707-.293.293-.764.293-1.707.293H12c-.943 0-1.414 0-1.707-.293C10 14.914 10 14.443 10 13.5V12z" stroke="#fff" stroke-linecap="round" stroke-linejoin="round"/></g><defs><clipPath id="clip0_821_19417"><path fill="#fff" d="M0 0H18V18H0z"/></clipPath></defs></svg>
